; G-Code generated by Simplify3D(R) Version 4.0.1
; Feb 27, 2022 at 11:43:25 PM
; Settings Summary
;   processName,Process1
;   applyToModels,buttons1
;   profileName,Default (modified)
;   profileVersion,2017-03-01 08:00:00
;   baseProfile,
;   printMaterial,PLA
;   printQuality,High
;   printExtruders,
;   extruderName,Primary Extruder
;   extruderToolheadNumber,0
;   extruderDiameter,0.35
;   extruderAutoWidth,0
;   extruderWidth,0.4
;   extrusionMultiplier,1
;   extruderUseRetract,1
;   extruderRetractionDistance,1
;   extruderExtraRestartDistance,0
;   extruderRetractionZLift,1
;   extruderRetractionSpeed,1600
;   extruderUseCoasting,0
;   extruderCoastingDistance,0.2
;   extruderUseWipe,0
;   extruderWipeDistance,5
;   primaryExtruder,0
;   layerHeight,0.1
;   topSolidLayers,2
;   bottomSolidLayers,3
;   perimeterOutlines,4
;   printPerimetersInsideOut,1
;   startPointOption,2
;   startPointOriginX,0
;   startPointOriginY,0
;   sequentialIslands,0
;   spiralVaseMode,0
;   firstLayerHeightPercentage,90
;   firstLayerWidthPercentage,125
;   firstLayerUnderspeed,0.7
;   useRaft,0
;   raftExtruder,0
;   raftTopLayers,2
;   raftBaseLayers,1
;   raftOffset,2.4
;   raftSeparationDistance,0.14
;   raftTopInfill,40
;   aboveRaftSpeedMultiplier,0.5
;   useSkirt,1
;   skirtExtruder,0
;   skirtLayers,2
;   skirtOutlines,2
;   skirtOffset,2.2
;   usePrimePillar,0
;   primePillarExtruder,999
;   primePillarWidth,12
;   primePillarLocation,7
;   primePillarSpeedMultiplier,1
;   useOozeShield,0
;   oozeShieldExtruder,999
;   oozeShieldOffset,2
;   oozeShieldOutlines,1
;   oozeShieldSidewallShape,1
;   oozeShieldSidewallAngle,30
;   oozeShieldSpeedMultiplier,1
;   infillExtruder,0
;   internalInfillPattern,Triangular
;   externalInfillPattern,Rectilinear
;   infillPercentage,45
;   outlineOverlapPercentage,15
;   infillExtrusionWidthPercentage,100
;   minInfillLength,5
;   infillLayerInterval,1
;   internalInfillAngles,0,60,-60
;   overlapInternalInfillAngles,1
;   externalInfillAngles,45,-45
;   generateSupport,0
;   supportExtruder,0
;   supportInfillPercentage,45
;   supportExtraInflation,0
;   supportBaseLayers,0
;   denseSupportExtruder,0
;   denseSupportLayers,0
;   denseSupportInfillPercentage,70
;   supportLayerInterval,1
;   supportHorizontalPartOffset,0.3
;   supportUpperSeparationLayers,1
;   supportLowerSeparationLayers,1
;   supportType,0
;   supportGridSpacing,4
;   maxOverhangAngle,45
;   supportAngles,45
;   temperatureName,Main Extruder
;   temperatureNumber,0
;   temperatureSetpointCount,1
;   temperatureSetpointLayers,1
;   temperatureSetpointTemperatures,197
;   temperatureStabilizeAtStartup,1
;   temperatureHeatedBed,0
;   temperatureRelayBetweenLayers,0
;   temperatureRelayBetweenLoops,0
;   fanLayers,1,2
;   fanSpeeds,0,100
;   blipFanToFullPower,0
;   adjustSpeedForCooling,0
;   minSpeedLayerTime,15
;   minCoolingSpeedSlowdown,20
;   increaseFanForCooling,0
;   minFanLayerTime,45
;   maxCoolingFanSpeed,100
;   increaseFanForBridging,0
;   bridgingFanSpeed,100
;   use5D,1
;   relativeEdistances,0
;   allowEaxisZeroing,1
;   independentExtruderAxes,0
;   includeM10123,0
;   stickySupport,1
;   applyToolheadOffsets,0
;   gcodeXoffset,0
;   gcodeYoffset,0
;   gcodeZoffset,0
;   overrideMachineDefinition,0
;   machineTypeOverride,0
;   strokeXoverride,200
;   strokeYoverride,200
;   strokeZoverride,200
;   originOffsetXoverride,0
;   originOffsetYoverride,0
;   originOffsetZoverride,0
;   homeXdirOverride,-1
;   homeYdirOverride,-1
;   homeZdirOverride,-1
;   flipXoverride,1
;   flipYoverride,-1
;   flipZoverride,1
;   toolheadOffsets,0,0|0,0|0,0|0,0|0,0|0,0
;   overrideFirmwareConfiguration,0
;   firmwareTypeOverride,RepRap (Marlin/Repetier/Sprinter)
;   GPXconfigOverride,r2
;   baudRateOverride,115200
;   overridePrinterModels,0
;   printerModelsOverride
;   startingGcode,G28 ; home all axes
;   layerChangeGcode,
;   retractionGcode,
;   toolChangeGcode,
;   endingGcode,M104 S0 ; turn off extruder,M140 S0 ; turn off bed,M84 ; disable motors
;   exportFileFormat,gcode
;   celebration,0
;   celebrationSong,Random Song
;   postProcessing,
;   defaultSpeed,800
;   outlineUnderspeed,0.6
;   solidInfillUnderspeed,0.7
;   supportUnderspeed,0.7
;   rapidXYspeed,4800
;   rapidZspeed,1000
;   minBridgingArea,50
;   bridgingExtraInflation,0
;   bridgingExtrusionMultiplier,1
;   bridgingSpeedMultiplier,1
;   useFixedBridgingAngle,0
;   fixedBridgingAngle,0
;   applyBridgingToPerimeters,0
;   filamentDiameters,1.5|1.75|1.75|1.75|1.75|1.75
;   filamentPricesPerKg,46|46|46|46|46|46
;   filamentDensities,1.25|1.25|1.25|1.25|1.25|1.25
;   useMinPrintHeight,0
;   minPrintHeight,0
;   useMaxPrintHeight,0
;   maxPrintHeight,0
;   useDiaphragm,0
;   diaphragmLayerInterval,20
;   robustSlicing,1
;   mergeAllIntoSolid,0
;   onlyRetractWhenCrossingOutline,1
;   retractBetweenLayers,1
;   useRetractionMinTravel,0
;   retractionMinTravel,3
;   retractWhileWiping,0
;   onlyWipeOutlines,1
;   avoidCrossingOutline,0
;   maxMovementDetourFactor,3
;   toolChangeRetractionDistance,12
;   toolChangeExtraRestartDistance,-0.5
;   toolChangeRetractionSpeed,600
;   externalThinWallType,0
;   internalThinWallType,2
;   thinWallAllowedOverlapPercentage,10
;   singleExtrusionMinLength,1
;   singleExtrusionMinPrintingWidthPercentage,50
;   singleExtrusionMaxPrintingWidthPercentage,200
;   singleExtrusionEndpointExtension,0.2
;   horizontalSizeCompensation,0
G90
M82
M106 S0
M104 S197 T0
M109 S197 T0
G28 ; home all axes
G92 E0
G1 E-1.0000 F1600
G1 Z1.090 F1000
; process Process1
; layer 1, Z = 0.090
T0
; tool H0.100 W0.500
; skirt
G1 X90.249 Y94.541 F4800
G1 Z0.090 F1000
G1 E0.0000 F480
G92 E0
G1 X90.469 Y94.450 E0.0068 F560
G1 X96.531 Y94.450 E0.1783
G1 X96.751 Y94.541 E0.1850
G1 X97.000 Y94.790 E0.1950
G1 X97.249 Y94.541 E0.2049
G1 X97.469 Y94.450 E0.2117
G1 X102.531 Y94.450 E0.3549
G1 X102.751 Y94.541 E0.3616
G1 X103.000 Y94.790 E0.3716
G1 X103.249 Y94.541 E0.3815
G1 X103.469 Y94.450 E0.3883
G1 X109.531 Y94.450 E0.5598
G1 X109.751 Y94.541 E0.5666
G1 X111.209 Y95.999 E0.6249
G1 X111.300 Y96.219 E0.6316
G1 X111.300 Y103.781 E0.8456
G1 X111.209 Y104.001 E0.8523
G1 X109.751 Y105.459 E0.9106
G1 X109.531 Y105.550 E0.9174
G1 X90.469 Y105.550 E1.4567
G1 X90.249 Y105.459 E1.4635
G1 X88.791 Y104.001 E1.5218
G1 X88.700 Y103.781 E1.5285
G1 X88.700 Y96.219 E1.7425
G1 X88.791 Y95.999 E1.7492
G1 X90.249 Y94.541 E1.8076
G1 X90.475 Y94.880 F4800
G92 E0
G1 X90.549 Y94.850 E0.0023 F560
G1 X96.451 Y94.850 E0.1692
G1 X96.525 Y94.880 E0.1715
G1 X97.000 Y95.356 E0.1905
G1 X97.475 Y94.880 E0.2095
G1 X97.549 Y94.850 E0.2118
G1 X102.451 Y94.850 E0.3505
G1 X102.525 Y94.880 E0.3528
G1 X103.000 Y95.356 E0.3718
G1 X103.475 Y94.880 E0.3908
G1 X103.549 Y94.850 E0.3930
G1 X109.451 Y94.850 E0.5600
G1 X109.525 Y94.880 E0.5623
G1 X110.870 Y96.225 E0.6161
G1 X110.900 Y96.299 E0.6184
G1 X110.900 Y99.951 E0.7217
G1 X110.880 Y100.000 E0.7232
G1 X110.900 Y100.049 E0.7247
G1 X110.900 Y103.701 E0.8280
G1 X110.870 Y103.775 E0.8303
G1 X109.525 Y105.120 E0.8841
G1 X109.451 Y105.150 E0.8864
G1 X90.549 Y105.150 E1.4212
G1 X90.475 Y105.120 E1.4234
G1 X89.130 Y103.775 E1.4772
G1 X89.100 Y103.701 E1.4795
G1 X89.100 Y100.049 E1.5828
G1 X89.120 Y100.000 E1.5843
G1 X89.100 Y99.951 E1.5858
G1 X89.100 Y96.299 E1.6892
G1 X89.130 Y96.225 E1.6914
G1 X90.475 Y94.880 E1.7452
G92 E0
G1 E-1.0000 F1600
G1 Z1.090 F1000
; outer perimeter
G1 X91.750 Y97.500 F4800
G1 Z0.090 F1000
G1 E0.0000 F1600
G92 E0
G1 X95.250 Y97.500 E0.0990 F336
G1 X95.250 Y98.750 E0.1344
G1 X91.750 Y98.750 E0.2334
G1 X91.750 Y97.500 E0.2688
; gap fill
G1 X92.273 Y97.930 F4800
G92 E0
G1 X92.663 Y98.320 E0.0156 F392
G1 X93.370 Y98.320 E0.0356
G1 X92.980 Y97.930 E0.0512
G1 X93.687 Y97.930 E0.0712
G1 X94.077 Y98.320 E0.0868
G1 X94.784 Y98.320 E0.1068
G1 X94.394 Y97.930 E0.1224
G92 E0
G1 E-1.0000 F1600
G1 Z1.090 F1000
; outer perimeter
G1 X95.250 Y101.250 F4800
G1 Z0.090 F1000
G1 E0.0000 F1600
G92 E0
G1 X95.250 Y102.250 E0.0283 F336
G1 X98.750 Y102.250 E0.1273
G1 X98.750 Y101.250 E0.1556
G1 X101.250 Y101.250 E0.2264
G1 X101.250 Y102.250 E0.2546
G1 X104.750 Y102.250 E0.3537
G1 X104.750 Y101.250 E0.3820
G1 X108.250 Y101.250 E0.4810
G1 X108.250 Y102.500 E0.5164
G1 X91.750 Y102.500 E0.9832
G1 X91.750 Y101.250 E1.0186
G1 X95.250 Y101.250 E1.1176
; gap fill
G1 X94.609 Y101.680 F4800
G92 E0
G1 X94.820 Y101.891 E0.0084 F392
G1 X94.820 Y102.070 E0.0135
G1 X94.292 Y102.070 E0.0285
G1 X93.902 Y101.680 E0.0441
G1 X93.195 Y101.680 E0.0641
G1 X93.585 Y102.070 E0.0797
G1 X92.878 Y102.070 E0.0997
G1 X92.488 Y101.680 E0.1153
G92 E0
G1 E-1.0000 F1600
G1 Z1.090 F1000
G1 X99.242 Y102.070 F4800
G1 Z0.090 F1000
G1 E0.0000 F1600
G92 E0
G1 X99.180 Y102.008 E0.0025 F392
G1 X99.180 Y101.680 E0.0118
G1 X99.559 Y101.680 E0.0225
G1 X99.949 Y102.070 E0.0381
G1 X100.656 Y102.070 E0.0581
G1 X100.266 Y101.680 E0.0737
G92 E0
G1 E-1.0000 F1600
G1 Z1.090 F1000
G1 X105.216 Y101.680 F4800
G1 Z0.090 F1000
G1 E0.0000 F1600
G92 E0
G1 X105.606 Y102.070 E0.0156 F392
G1 X106.313 Y102.070 E0.0356
G1 X105.923 Y101.680 E0.0512
G1 X106.630 Y101.680 E0.0712
G1 X107.020 Y102.070 E0.0868
G1 X107.727 Y102.070 E0.1068
G1 X107.337 Y101.680 E0.1224
G92 E0
G1 E-1.0000 F1600
G1 Z1.090 F1000
; outer perimeter
G1 X108.250 Y98.750 F4800
G1 Z0.090 F1000
G1 E0.0000 F1600
G92 E0
G1 X104.750 Y98.750 E0.0990 F336
G1 X104.750 Y97.500 E0.1344
G1 X108.250 Y97.500 E0.2334
G1 X108.250 Y98.750 E0.2688
; gap fill
G1 X107.122 Y97.930 F4800
G92 E0
G1 X107.512 Y98.320 E0.0156 F392
G1 X106.805 Y98.320 E0.0356
G1 X106.415 Y97.930 E0.0512
G1 X105.708 Y97.930 E0.0712
G1 X106.098 Y98.320 E0.0868
G1 X105.391 Y98.320 E0.1068
G1 X105.180 Y98.109 E0.1153
G92 E0
G1 E-1.0000 F1600
G1 Z1.090 F1000
; outer perimeter
G1 X101.250 Y97.500 F4800
G1 Z0.090 F1000
G1 E0.0000 F1600
G92 E0
G1 X101.250 Y98.750 E0.0354 F336
G1 X98.750 Y98.750 E0.1061
G1 X98.750 Y97.500 E0.1415
G1 X101.250 Y97.500 E0.2122
; gap fill
G1 X100.758 Y97.930 F4800
G92 E0
G1 X100.820 Y97.992 E0.0025 F392
G1 X100.820 Y98.320 E0.0118
G1 X100.441 Y98.320 E0.0225
G1 X100.051 Y97.930 E0.0381
G1 X99.344 Y97.930 E0.0581
G1 X99.734 Y98.320 E0.0737
G92 E0
G1 E-1.0000 F1600
G1 Z1.190 F1000
; layer 2, Z = 0.190
M106 S255
; tool H0.100 W0.400
; skirt
G1 X97.000 Y94.790 F4800
G1 Z0.190 F1000
G1 E0.0000 F1600
G92 E0
G1 X97.249 Y94.541 E0.0080 F800
G1 X97.469 Y94.450 E0.0134
G1 X102.531 Y94.450 E0.1279
G1 X102.751 Y94.541 E0.1333
G1 X103.000 Y94.790 E0.1413
G1 X103.249 Y94.541 E0.1493
G1 X103.469 Y94.450 E0.1547
G1 X109.531 Y94.450 E0.2919
G1 X109.751 Y94.541 E0.2973
G1 X111.209 Y95.999 E0.3439
G1 X111.300 Y96.219 E0.3493
G1 X111.300 Y103.781 E0.5205
G1 X111.209 Y104.001 E0.5259
G1 X109.751 Y105.459 E0.5725
G1 X109.531 Y105.550 E0.5779
G1 X90.469 Y105.550 E1.0094
G1 X90.249 Y105.459 E1.0148
G1 X88.791 Y104.001 E1.0615
G1 X88.700 Y103.781 E1.0669
G1 X88.700 Y96.219 E1.2380
G1 X88.791 Y95.999 E1.2434
G1 X90.249 Y94.541 E1.2901
G1 X90.469 Y94.450 E1.2955
G1 X96.531 Y94.450 E1.4327
G1 X96.751 Y94.541 E1.4381
G1 X97.000 Y94.790 E1.4460
G1 X96.525 Y94.880 F4800
G92 E0
G1 X97.000 Y95.356 E0.0152 F800
G1 X97.475 Y94.880 E0.0304
G1 X97.549 Y94.850 E0.0322
G1 X102.451 Y94.850 E0.1432
G1 X102.525 Y94.880 E0.1450
G1 X103.000 Y95.356 E0.1602
G1 X103.475 Y94.880 E0.1754
G1 X103.549 Y94.850 E0.1772
G1 X109.451 Y94.850 E0.3108
G1 X109.525 Y94.880 E0.3126
G1 X110.870 Y96.225 E0.3557
G1 X110.900 Y96.299 E0.3575
G1 X110.900 Y99.951 E0.4402
G1 X110.880 Y100.000 E0.4414
G1 X110.900 Y100.049 E0.4426
G1 X110.900 Y103.701 E0.5252
G1 X110.870 Y103.775 E0.5270
G1 X109.525 Y105.120 E0.5701
G1 X109.451 Y105.150 E0.5719
G1 X90.549 Y105.150 E0.9997
G1 X90.475 Y105.120 E1.0015
G1 X89.130 Y103.775 E1.0446
G1 X89.100 Y103.701 E1.0464
G1 X89.100 Y100.049 E1.1291
G1 X89.120 Y100.000 E1.1303
G1 X89.100 Y99.951 E1.1315
G1 X89.100 Y96.299 E1.2141
G1 X89.130 Y96.225 E1.2159
G1 X90.475 Y94.880 E1.2590
G1 X90.549 Y94.850 E1.2608
G1 X96.451 Y94.850 E1.3944
G1 X96.525 Y94.880 E1.3962
G92 E0
G1 E-1.0000 F1600
G1 Z1.190 F1000
; inner perimeter
G1 X94.900 Y97.850 F4800
G1 Z0.190 F1000
G1 E0.0000 F1600
G92 E0
G1 X94.900 Y98.400 E0.0124 F640
G1 X92.100 Y98.400 E0.0758
G1 X92.100 Y97.850 E0.0883
G1 X94.900 Y97.850 E0.1517
; outer perimeter
G1 X95.300 Y97.450 F4800
G92 E0
G1 X95.300 Y98.800 E0.0306 F480
G1 X91.700 Y98.800 E0.1120
G1 X91.700 Y97.450 E0.1426
G1 X95.300 Y97.450 E0.2241
G92 E0
G1 E-1.0000 F1600
G1 Z1.190 F1000
; inner perimeter
G1 X99.100 Y97.850 F4800
G1 Z0.190 F1000
G1 E0.0000 F1600
G92 E0
G1 X100.900 Y97.850 E0.0407 F640
G1 X100.900 Y98.400 E0.0532
G1 X99.100 Y98.400 E0.0939
G1 X99.100 Y97.850 E0.1064
; outer perimeter
G1 X98.700 Y97.450 F4800
G92 E0
G1 X101.300 Y97.450 E0.0589 F480
G1 X101.300 Y98.800 E0.0894
G1 X98.700 Y98.800 E0.1483
G1 X98.700 Y97.450 E0.1788
G92 E0
G1 E-1.0000 F1600
G1 Z1.190 F1000
; inner perimeter
G1 X99.100 Y101.600 F4800
G1 Z0.190 F1000
G1 E0.0000 F1600
G92 E0
G1 X100.900 Y101.600 E0.0407 F640
G1 X100.900 Y102.150 E0.0532
G1 X99.100 Y102.150 E0.0939
G1 X99.100 Y101.600 E0.1064
G92 E0
G1 E-1.0000 F1600
G1 Z1.190 F1000
G1 X94.900 Y101.600 F4800
G1 Z0.190 F1000
G1 E0.0000 F1600
G92 E0
G1 X94.900 Y102.150 E0.0124 F640
G1 X92.100 Y102.150 E0.0758
G1 X92.100 Y101.600 E0.0883
G1 X94.900 Y101.600 E0.1517
G92 E0
G1 E-1.0000 F1600
G1 Z1.190 F1000
G1 X105.100 Y101.600 F4800
G1 Z0.190 F1000
G1 E0.0000 F1600
G92 E0
G1 X107.900 Y101.600 E0.0634 F640
G1 X107.900 Y102.150 E0.0758
G1 X105.100 Y102.150 E0.1392
G1 X105.100 Y101.600 E0.1517
; outer perimeter
G1 X104.700 Y101.200 F4800
G92 E0
G1 X108.300 Y101.200 E0.0815 F480
G1 X108.300 Y102.550 E0.1120
G1 X91.700 Y102.550 E0.4878
G1 X91.700 Y101.200 E0.5183
G1 X95.300 Y101.200 E0.5998
G1 X95.300 Y102.200 E0.6225
G1 X98.700 Y102.200 E0.6994
G1 X98.700 Y101.200 E0.7221
G1 X101.300 Y101.200 E0.7809
G1 X101.300 Y102.200 E0.8036
G1 X104.700 Y102.200 E0.8805
G1 X104.700 Y101.200 E0.9032
G92 E0
G1 E-1.0000 F1600
G1 Z1.190 F1000
; inner perimeter
G1 X105.100 Y98.400 F4800
G1 Z0.190 F1000
G1 E0.0000 F1600
G92 E0
G1 X105.100 Y97.850 E0.0124 F640
G1 X107.900 Y97.850 E0.0758
G1 X107.900 Y98.400 E0.0883
G1 X105.100 Y98.400 E0.1517
; outer perimeter
G1 X104.700 Y98.800 F4800
G92 E0
G1 X104.700 Y97.450 E0.0306 F480
G1 X108.300 Y97.450 E0.1120
G1 X108.300 Y98.800 E0.1426
G1 X104.700 Y98.800 E0.2241
G92 E0
G1 E-1.0000 F1600
G1 Z1.290 F1000
; layer 3, Z = 0.290
; inner perimeter
G1 X105.100 Y98.400 F4800
G1 Z0.290 F1000
G1 E0.0000 F1600
G92 E0
G1 X105.100 Y97.850 E0.0124 F640
G1 X107.900 Y97.850 E0.0758
G1 X107.900 Y98.400 E0.0883
G1 X105.100 Y98.400 E0.1517
; outer perimeter
G1 X104.700 Y98.800 F4800
G92 E0
G1 X104.700 Y97.450 E0.0306 F480
G1 X108.300 Y97.450 E0.1120
G1 X108.300 Y98.800 E0.1426
G1 X104.700 Y98.800 E0.2241
G92 E0
G1 E-1.0000 F1600
G1 Z1.290 F1000
; inner perimeter
G1 X105.100 Y101.600 F4800
G1 Z0.290 F1000
G1 E0.0000 F1600
G92 E0
G1 X107.900 Y101.600 E0.0634 F640
G1 X107.900 Y102.150 E0.0758
G1 X105.100 Y102.150 E0.1392
G1 X105.100 Y101.600 E0.1517
G92 E0
G1 E-1.0000 F1600
G1 Z1.290 F1000
G1 X100.900 Y101.600 F4800
G1 Z0.290 F1000
G1 E0.0000 F1600
G92 E0
G1 X100.900 Y102.150 E0.0124 F640
G1 X99.100 Y102.150 E0.0532
G1 X99.100 Y101.600 E0.0656
G1 X100.900 Y101.600 E0.1064
G92 E0
G1 E-1.0000 F1600
G1 Z1.290 F1000
G1 X94.900 Y101.600 F4800
G1 Z0.290 F1000
G1 E0.0000 F1600
G92 E0
G1 X94.900 Y102.150 E0.0124 F640
G1 X92.100 Y102.150 E0.0758
G1 X92.100 Y101.600 E0.0883
G1 X94.900 Y101.600 E0.1517
; outer perimeter
G1 X95.300 Y101.200 F4800
G92 E0
G1 X95.300 Y102.200 E0.0226 F480
G1 X98.700 Y102.200 E0.0996
G1 X98.700 Y101.200 E0.1222
G1 X101.300 Y101.200 E0.1811
G1 X101.300 Y102.200 E0.2037
G1 X104.700 Y102.200 E0.2807
G1 X104.700 Y101.200 E0.3033
G1 X108.300 Y101.200 E0.3848
G1 X108.300 Y102.550 E0.4154
G1 X91.700 Y102.550 E0.7911
G1 X91.700 Y101.200 E0.8217
G1 X95.300 Y101.200 E0.9032
G92 E0
G1 E-1.0000 F1600
G1 Z1.290 F1000
; inner perimeter
G1 X94.900 Y98.400 F4800
G1 Z0.290 F1000
G1 E0.0000 F1600
G92 E0
G1 X92.100 Y98.400 E0.0634 F640
G1 X92.100 Y97.850 E0.0758
G1 X94.900 Y97.850 E0.1392
G1 X94.900 Y98.400 E0.1517
; outer perimeter
