; G-Code generated by Simplify3D(R) Version 4.0.1
; Feb 28, 2022 at 1:21:46 AM
; Settings Summary
;   processName,Process1
;   applyToModels,emw3_1
;   profileName,Default (modified)
;   profileVersion,2017-03-01 08:00:00
;   baseProfile,
;   printMaterial,PLA
;   printQuality,High
;   printExtruders,
;   extruderName,Primary Extruder
;   extruderToolheadNumber,0
;   extruderDiameter,0.35
;   extruderAutoWidth,0
;   extruderWidth,0.4
;   extrusionMultiplier,0.95
;   extruderUseRetract,1
;   extruderRetractionDistance,1
;   extruderExtraRestartDistance,0
;   extruderRetractionZLift,1
;   extruderRetractionSpeed,1600
;   extruderUseCoasting,0
;   extruderCoastingDistance,0.2
;   extruderUseWipe,0
;   extruderWipeDistance,5
;   primaryExtruder,0
;   layerHeight,0.1
;   topSolidLayers,2
;   bottomSolidLayers,3
;   perimeterOutlines,4
;   printPerimetersInsideOut,1
;   startPointOption,2
;   startPointOriginX,0
;   startPointOriginY,0
;   sequentialIslands,0
;   spiralVaseMode,0
;   firstLayerHeightPercentage,90
;   firstLayerWidthPercentage,100
;   firstLayerUnderspeed,0.4
;   useRaft,0
;   raftExtruder,0
;   raftTopLayers,2
;   raftBaseLayers,1
;   raftOffset,2.4
;   raftSeparationDistance,0.14
;   raftTopInfill,40
;   aboveRaftSpeedMultiplier,0.5
;   useSkirt,1
;   skirtExtruder,0
;   skirtLayers,2
;   skirtOutlines,2
;   skirtOffset,3
;   usePrimePillar,0
;   primePillarExtruder,999
;   primePillarWidth,12
;   primePillarLocation,7
;   primePillarSpeedMultiplier,1
;   useOozeShield,0
;   oozeShieldExtruder,999
;   oozeShieldOffset,2
;   oozeShieldOutlines,1
;   oozeShieldSidewallShape,1
;   oozeShieldSidewallAngle,30
;   oozeShieldSpeedMultiplier,1
;   infillExtruder,0
;   internalInfillPattern,Triangular
;   externalInfillPattern,Rectilinear
;   infillPercentage,45
;   outlineOverlapPercentage,15
;   infillExtrusionWidthPercentage,100
;   minInfillLength,5
;   infillLayerInterval,1
;   internalInfillAngles,0,60,-60
;   overlapInternalInfillAngles,1
;   externalInfillAngles,45,-45
;   generateSupport,1
;   supportExtruder,0
;   supportInfillPercentage,45
;   supportExtraInflation,0
;   supportBaseLayers,0
;   denseSupportExtruder,0
;   denseSupportLayers,0
;   denseSupportInfillPercentage,70
;   supportLayerInterval,1
;   supportHorizontalPartOffset,0.3
;   supportUpperSeparationLayers,1
;   supportLowerSeparationLayers,1
;   supportType,0
;   supportGridSpacing,4
;   maxOverhangAngle,45
;   supportAngles,45
;   temperatureName,Main Extruder
;   temperatureNumber,0
;   temperatureSetpointCount,1
;   temperatureSetpointLayers,1
;   temperatureSetpointTemperatures,197
;   temperatureStabilizeAtStartup,1
;   temperatureHeatedBed,0
;   temperatureRelayBetweenLayers,0
;   temperatureRelayBetweenLoops,0
;   fanLayers,1,2
;   fanSpeeds,0,100
;   blipFanToFullPower,0
;   adjustSpeedForCooling,0
;   minSpeedLayerTime,15
;   minCoolingSpeedSlowdown,20
;   increaseFanForCooling,0
;   minFanLayerTime,45
;   maxCoolingFanSpeed,100
;   increaseFanForBridging,0
;   bridgingFanSpeed,100
;   use5D,1
;   relativeEdistances,0
;   allowEaxisZeroing,1
;   independentExtruderAxes,0
;   includeM10123,0
;   stickySupport,1
;   applyToolheadOffsets,0
;   gcodeXoffset,0
;   gcodeYoffset,0
;   gcodeZoffset,0
;   overrideMachineDefinition,0
;   machineTypeOverride,0
;   strokeXoverride,200
;   strokeYoverride,200
;   strokeZoverride,200
;   originOffsetXoverride,0
;   originOffsetYoverride,0
;   originOffsetZoverride,0
;   homeXdirOverride,-1
;   homeYdirOverride,-1
;   homeZdirOverride,-1
;   flipXoverride,1
;   flipYoverride,-1
;   flipZoverride,1
;   toolheadOffsets,0,0|0,0|0,0|0,0|0,0|0,0
;   overrideFirmwareConfiguration,0
;   firmwareTypeOverride,RepRap (Marlin/Repetier/Sprinter)
;   GPXconfigOverride,r2
;   baudRateOverride,115200
;   overridePrinterModels,0
;   printerModelsOverride
;   startingGcode,G28 ; home all axes
;   layerChangeGcode,
;   retractionGcode,
;   toolChangeGcode,
;   endingGcode,M104 S0 ; turn off extruder,M140 S0 ; turn off bed,M84 ; disable motors
;   exportFileFormat,gcode
;   celebration,0
;   celebrationSong,Random Song
;   postProcessing,
;   defaultSpeed,3600
;   outlineUnderspeed,0.6
;   solidInfillUnderspeed,0.8
;   supportUnderspeed,0.7
;   rapidXYspeed,4800
;   rapidZspeed,1000
;   minBridgingArea,50
;   bridgingExtraInflation,0
;   bridgingExtrusionMultiplier,1
;   bridgingSpeedMultiplier,1
;   useFixedBridgingAngle,0
;   fixedBridgingAngle,0
;   applyBridgingToPerimeters,0
;   filamentDiameters,1.5|1.75|1.75|1.75|1.75|1.75
;   filamentPricesPerKg,46|46|46|46|46|46
;   filamentDensities,1.25|1.25|1.25|1.25|1.25|1.25
;   useMinPrintHeight,0
;   minPrintHeight,0
;   useMaxPrintHeight,0
;   maxPrintHeight,0
;   useDiaphragm,0
;   diaphragmLayerInterval,20
;   robustSlicing,1
;   mergeAllIntoSolid,0
;   onlyRetractWhenCrossingOutline,1
;   retractBetweenLayers,1
;   useRetractionMinTravel,0
;   retractionMinTravel,3
;   retractWhileWiping,0
;   onlyWipeOutlines,1
;   avoidCrossingOutline,0
;   maxMovementDetourFactor,3
;   toolChangeRetractionDistance,12
;   toolChangeExtraRestartDistance,-0.5
;   toolChangeRetractionSpeed,600
;   externalThinWallType,0
;   internalThinWallType,2
;   thinWallAllowedOverlapPercentage,10
;   singleExtrusionMinLength,1
;   singleExtrusionMinPrintingWidthPercentage,50
;   singleExtrusionMaxPrintingWidthPercentage,200
;   singleExtrusionEndpointExtension,0.2
;   horizontalSizeCompensation,0
G90
M82
M106 S0
M104 S197 T0
M109 S197 T0
G28 ; home all axes
G92 E0
G1 E-1.0000 F1600
G1 Z1.090 F1000
; process Process1
; layer 1, Z = 0.090
T0
; tool H0.100 W0.400
; skirt
G1 X55.725 Y79.834 F4800
G1 Z0.090 F1000
G1 E0.0000 F480
G92 E0
G1 X55.745 Y79.821 E0.0005 F1440
G1 X56.368 Y79.440 E0.0162
G1 X56.388 Y79.428 E0.0167
G1 X56.619 Y79.311 E0.0223
G1 X56.641 Y79.301 E0.0228
G1 X57.315 Y79.021 E0.0385
G1 X57.337 Y79.013 E0.0390
G1 X57.584 Y78.933 E0.0446
G1 X57.606 Y78.927 E0.0451
G1 X58.316 Y78.756 E0.0608
G1 X58.340 Y78.752 E0.0613
G1 X58.596 Y78.711 E0.0669
G1 X58.619 Y78.708 E0.0674
G1 X59.282 Y78.656 E0.0817
G1 X59.294 Y78.655 E0.0819
G1 X59.423 Y78.650 E0.0847
G1 X59.435 Y78.650 E0.0850
G1 X140.565 Y78.650 E1.8295
G1 X140.577 Y78.650 E1.8298
G1 X140.706 Y78.655 E1.8326
G1 X140.718 Y78.656 E1.8328
G1 X141.381 Y78.708 E1.8471
G1 X141.404 Y78.711 E1.8477
G1 X141.660 Y78.752 E1.8532
G1 X141.684 Y78.756 E1.8537
G1 X142.393 Y78.927 E1.8694
G1 X142.416 Y78.933 E1.8699
G1 X142.663 Y79.013 E1.8755
G1 X142.685 Y79.021 E1.8760
G1 X143.359 Y79.301 E1.8917
G1 X143.381 Y79.311 E1.8922
G1 X143.612 Y79.428 E1.8978
G1 X143.632 Y79.440 E1.8983
G1 X144.255 Y79.821 E1.9140
G1 X144.274 Y79.834 E1.9145
G1 X144.484 Y79.987 E1.9201
G1 X144.503 Y80.001 E1.9206
G1 X145.058 Y80.475 E1.9363
G1 X145.075 Y80.491 E1.9368
G1 X145.259 Y80.675 E1.9424
G1 X145.275 Y80.692 E1.9429
G1 X145.749 Y81.247 E1.9586
G1 X145.763 Y81.266 E1.9591
G1 X145.916 Y81.476 E1.9647
G1 X145.929 Y81.495 E1.9652
G1 X146.310 Y82.118 E1.9809
G1 X146.322 Y82.138 E1.9814
G1 X146.439 Y82.369 E1.9870
G1 X146.449 Y82.391 E1.9875
G1 X146.729 Y83.065 E2.0032
G1 X146.737 Y83.087 E2.0037
G1 X146.817 Y83.334 E2.0092
G1 X146.823 Y83.356 E2.0098
G1 X146.994 Y84.066 E2.0255
G1 X146.998 Y84.090 E2.0260
G1 X147.039 Y84.346 E2.0315
G1 X147.042 Y84.369 E2.0320
G1 X147.094 Y85.032 E2.0463
G1 X147.095 Y85.044 E2.0466
G1 X147.100 Y85.173 E2.0494
G1 X147.100 Y85.185 E2.0496
G1 X147.100 Y114.815 E2.6868
G1 X147.100 Y114.827 E2.6870
G1 X147.095 Y114.956 E2.6898
G1 X147.094 Y114.968 E2.6901
G1 X147.042 Y115.631 E2.7044
G1 X147.039 Y115.654 E2.7049
G1 X146.998 Y115.910 E2.7105
G1 X146.994 Y115.934 E2.7110
G1 X146.823 Y116.644 E2.7267
G1 X146.817 Y116.666 E2.7272
G1 X146.737 Y116.913 E2.7328
G1 X146.729 Y116.935 E2.7333
G1 X146.449 Y117.609 E2.7490
G1 X146.439 Y117.631 E2.7495
G1 X146.322 Y117.862 E2.7550
G1 X146.310 Y117.882 E2.7555
G1 X145.929 Y118.505 E2.7712
G1 X145.916 Y118.524 E2.7718
G1 X145.763 Y118.734 E2.7773
G1 X145.749 Y118.753 E2.7778
G1 X145.275 Y119.308 E2.7935
G1 X145.259 Y119.325 E2.7940
G1 X145.075 Y119.509 E2.7996
G1 X145.058 Y119.525 E2.8001
G1 X144.503 Y119.999 E2.8158
G1 X144.484 Y120.013 E2.8163
G1 X144.274 Y120.166 E2.8219
G1 X144.255 Y120.179 E2.8224
G1 X143.632 Y120.560 E2.8381
G1 X143.612 Y120.572 E2.8386
G1 X143.381 Y120.689 E2.8442
G1 X143.359 Y120.699 E2.8447
G1 X142.685 Y120.979 E2.8604
G1 X142.663 Y120.987 E2.8609
G1 X142.416 Y121.067 E2.8665
G1 X142.394 Y121.073 E2.8670
G1 X141.684 Y121.244 E2.8827
G1 X141.661 Y121.248 E2.8832
G1 X141.404 Y121.289 E2.8888
G1 X141.381 Y121.292 E2.8893
G1 X140.718 Y121.344 E2.9036
G1 X140.706 Y121.345 E2.9038
G1 X140.577 Y121.350 E2.9066
G1 X140.565 Y121.350 E2.9069
G1 X59.435 Y121.350 E4.6515
G1 X59.423 Y121.350 E4.6517
G1 X59.294 Y121.345 E4.6545
G1 X59.282 Y121.344 E4.6547
G1 X58.619 Y121.292 E4.6691
G1 X58.596 Y121.289 E4.6696
G1 X58.339 Y121.248 E4.6751
G1 X58.316 Y121.244 E4.6756
G1 X57.606 Y121.073 E4.6913
G1 X57.584 Y121.067 E4.6919
G1 X57.337 Y120.987 E4.6974
G1 X57.315 Y120.979 E4.6979
G1 X56.641 Y120.699 E4.7136
G1 X56.619 Y120.689 E4.7141
G1 X56.388 Y120.572 E4.7197
G1 X56.368 Y120.560 E4.7202
G1 X55.745 Y120.179 E4.7359
G1 X55.726 Y120.166 E4.7364
G1 X55.516 Y120.013 E4.7420
G1 X55.497 Y119.999 E4.7425
G1 X54.942 Y119.525 E4.7582
G1 X54.925 Y119.509 E4.7587
G1 X54.741 Y119.325 E4.7643
G1 X54.725 Y119.308 E4.7648
G1 X54.251 Y118.753 E4.7805
G1 X54.237 Y118.734 E4.7810
G1 X54.084 Y118.524 E4.7866
G1 X54.071 Y118.505 E4.7871
G1 X53.690 Y117.882 E4.8028
G1 X53.678 Y117.862 E4.8033
G1 X53.560 Y117.631 E4.8089
G1 X53.551 Y117.609 E4.8094
G1 X53.271 Y116.935 E4.8251
G1 X53.263 Y116.913 E4.8256
G1 X53.183 Y116.666 E4.8312
G1 X53.177 Y116.644 E4.8317
G1 X53.006 Y115.934 E4.8474
G1 X53.002 Y115.911 E4.8479
G1 X52.961 Y115.654 E4.8534
G1 X52.958 Y115.631 E4.8540
G1 X52.906 Y114.968 E4.8683
G1 X52.905 Y114.956 E4.8685
G1 X52.900 Y114.827 E4.8713
G1 X52.900 Y114.815 E4.8715
G1 X52.900 Y85.185 E5.5087
G1 X52.900 Y85.173 E5.5089
G1 X52.905 Y85.044 E5.5117
G1 X52.906 Y85.032 E5.5120
G1 X52.958 Y84.369 E5.5263
G1 X52.961 Y84.346 E5.5268
G1 X53.002 Y84.089 E5.5324
G1 X53.006 Y84.066 E5.5329
G1 X53.177 Y83.356 E5.5486
G1 X53.183 Y83.334 E5.5491
G1 X53.263 Y83.087 E5.5547
G1 X53.271 Y83.065 E5.5552
G1 X53.551 Y82.391 E5.5709
G1 X53.560 Y82.369 E5.5714
G1 X53.678 Y82.138 E5.5769
G1 X53.690 Y82.118 E5.5775
G1 X54.071 Y81.495 E5.5932
G1 X54.084 Y81.476 E5.5937
G1 X54.237 Y81.266 E5.5992
G1 X54.251 Y81.247 E5.5997
G1 X54.725 Y80.692 E5.6154
G1 X54.741 Y80.675 E5.6160
G1 X54.925 Y80.491 E5.6215
G1 X54.942 Y80.475 E5.6220
G1 X55.497 Y80.001 E5.6377
G1 X55.516 Y79.987 E5.6382
G1 X55.725 Y79.834 E5.6438
G1 X55.954 Y80.162 F4800
G92 E0
G1 X55.961 Y80.158 E0.0002 F1440
G1 X56.570 Y79.785 E0.0155
G1 X56.577 Y79.781 E0.0157
G1 X56.794 Y79.670 E0.0209
G1 X56.801 Y79.667 E0.0211
G1 X57.461 Y79.394 E0.0365
G1 X57.468 Y79.391 E0.0366
G1 X57.700 Y79.316 E0.0419
G1 X57.707 Y79.314 E0.0420
G1 X58.402 Y79.147 E0.0574
G1 X58.410 Y79.145 E0.0576
G1 X58.650 Y79.107 E0.0628
G1 X58.658 Y79.106 E0.0630
G1 X59.310 Y79.055 E0.0770
G1 X59.314 Y79.055 E0.0771
G1 X59.435 Y79.050 E0.0797
G1 X59.439 Y79.050 E0.0798
G1 X140.561 Y79.050 E1.8242
G1 X140.565 Y79.050 E1.8243
G1 X140.686 Y79.055 E1.8269
G1 X140.690 Y79.055 E1.8270
G1 X141.342 Y79.106 E1.8411
G1 X141.350 Y79.107 E1.8412
G1 X141.590 Y79.145 E1.8465
G1 X141.598 Y79.147 E1.8466
G1 X142.292 Y79.314 E1.8620
G1 X142.300 Y79.316 E1.8622
G1 X142.532 Y79.391 E1.8674
G1 X142.539 Y79.394 E1.8676
G1 X143.199 Y79.667 E1.8829
G1 X143.206 Y79.670 E1.8831
G1 X143.423 Y79.781 E1.8883
G1 X143.430 Y79.785 E1.8885
G1 X144.039 Y80.158 E1.9039
G1 X144.046 Y80.162 E1.9040
G1 X144.243 Y80.306 E1.9093
G1 X144.249 Y80.311 E1.9095
G1 X144.792 Y80.774 E1.9248
G1 X144.798 Y80.780 E1.9250
G1 X144.970 Y80.952 E1.9302
G1 X144.975 Y80.958 E1.9304
G1 X145.439 Y81.501 E1.9458
G1 X145.444 Y81.507 E1.9459
G1 X145.588 Y81.704 E1.9512
G1 X145.592 Y81.711 E1.9513
G1 X145.965 Y82.320 E1.9667
G1 X145.969 Y82.327 E1.9669
G1 X146.080 Y82.544 E1.9721
G1 X146.083 Y82.551 E1.9723
G1 X146.356 Y83.211 E1.9876
G1 X146.359 Y83.218 E1.9878
G1 X146.434 Y83.450 E1.9930
G1 X146.436 Y83.457 E1.9932
G1 X146.603 Y84.152 E2.0086
G1 X146.605 Y84.160 E2.0087
G1 X146.643 Y84.400 E2.0140
G1 X146.644 Y84.408 E2.0141
G1 X146.695 Y85.060 E2.0282
G1 X146.695 Y85.064 E2.0283
G1 X146.700 Y85.185 E2.0309
G1 X146.700 Y85.189 E2.0310
G1 X146.700 Y114.811 E2.6680
G1 X146.700 Y114.815 E2.6680
G1 X146.695 Y114.936 E2.6707
G1 X146.695 Y114.940 E2.6707
G1 X146.644 Y115.592 E2.6848
G1 X146.643 Y115.600 E2.6850
G1 X146.605 Y115.840 E2.6902
G1 X146.603 Y115.848 E2.6904
G1 X146.436 Y116.542 E2.7057
G1 X146.434 Y116.550 E2.7059
G1 X146.359 Y116.782 E2.7111
G1 X146.356 Y116.789 E2.7113
G1 X146.083 Y117.449 E2.7267
G1 X146.080 Y117.456 E2.7268
G1 X145.969 Y117.673 E2.7321
G1 X145.965 Y117.680 E2.7322
G1 X145.592 Y118.289 E2.7476
G1 X145.588 Y118.296 E2.7478
G1 X145.444 Y118.493 E2.7530
G1 X145.439 Y118.499 E2.7532
G1 X144.975 Y119.042 E2.7685
G1 X144.970 Y119.048 E2.7687
G1 X144.798 Y119.220 E2.7739
G1 X144.792 Y119.226 E2.7741
G1 X144.249 Y119.689 E2.7895
G1 X144.243 Y119.694 E2.7896
G1 X144.046 Y119.838 E2.7949
G1 X144.039 Y119.842 E2.7951
G1 X143.430 Y120.215 E2.8104
G1 X143.423 Y120.219 E2.8106
G1 X143.206 Y120.329 E2.8158
G1 X143.199 Y120.333 E2.8160
G1 X142.539 Y120.606 E2.8313
G1 X142.532 Y120.609 E2.8315
G1 X142.300 Y120.684 E2.8368
G1 X142.293 Y120.686 E2.8369
G1 X141.598 Y120.853 E2.8523
G1 X141.590 Y120.855 E2.8525
G1 X141.350 Y120.893 E2.8577
G1 X141.342 Y120.894 E2.8579
G1 X140.690 Y120.945 E2.8719
G1 X140.686 Y120.945 E2.8720
G1 X140.565 Y120.950 E2.8746
G1 X140.561 Y120.950 E2.8747
G1 X59.439 Y120.950 E4.6191
G1 X59.435 Y120.950 E4.6192
G1 X59.314 Y120.945 E4.6218
G1 X59.310 Y120.945 E4.6219
G1 X58.658 Y120.894 E4.6359
G1 X58.650 Y120.893 E4.6361
G1 X58.410 Y120.855 E4.6414
G1 X58.402 Y120.853 E4.6415
G1 X57.707 Y120.686 E4.6569
G1 X57.700 Y120.684 E4.6571
G1 X57.468 Y120.609 E4.6623
G1 X57.461 Y120.606 E4.6625
G1 X56.801 Y120.333 E4.6778
G1 X56.794 Y120.329 E4.6780
G1 X56.577 Y120.219 E4.6832
G1 X56.570 Y120.215 E4.6834
G1 X55.961 Y119.842 E4.6988
G1 X55.954 Y119.838 E4.6989
G1 X55.757 Y119.694 E4.7042
G1 X55.751 Y119.689 E4.7043
G1 X55.208 Y119.226 E4.7197
G1 X55.202 Y119.220 E4.7199
G1 X55.030 Y119.048 E4.7251
G1 X55.025 Y119.042 E4.7253
G1 X54.561 Y118.499 E4.7406
G1 X54.556 Y118.493 E4.7408
G1 X54.412 Y118.296 E4.7460
G1 X54.408 Y118.289 E4.7462
G1 X54.035 Y117.680 E4.7616
G1 X54.031 Y117.673 E4.7617
G1 X53.920 Y117.456 E4.7670
G1 X53.917 Y117.449 E4.7671
G1 X53.644 Y116.789 E4.7825
G1 X53.641 Y116.782 E4.7827
G1 X53.566 Y116.550 E4.7879
G1 X53.564 Y116.543 E4.7881
G1 X53.397 Y115.848 E4.8034
G1 X53.395 Y115.840 E4.8036
G1 X53.357 Y115.600 E4.8089
G1 X53.356 Y115.592 E4.8090
G1 X53.305 Y114.940 E4.8231
G1 X53.305 Y114.936 E4.8232
G1 X53.300 Y114.815 E4.8258
G1 X53.300 Y114.811 E4.8259
G1 X53.300 Y85.189 E5.4628
G1 X53.300 Y85.185 E5.4629
G1 X53.305 Y85.064 E5.4655
G1 X53.305 Y85.060 E5.4656
G1 X53.356 Y84.408 E5.4797
G1 X53.357 Y84.400 E5.4798
G1 X53.395 Y84.160 E5.4851
G1 X53.397 Y84.152 E5.4852
G1 X53.564 Y83.457 E5.5006
G1 X53.566 Y83.450 E5.5008
G1 X53.641 Y83.218 E5.5060
G1 X53.644 Y83.211 E5.5062
G1 X53.917 Y82.551 E5.5215
G1 X53.920 Y82.544 E5.5217
G1 X54.031 Y82.327 E5.5270
G1 X54.035 Y82.320 E5.5271
G1 X54.408 Y81.711 E5.5425
G1 X54.412 Y81.704 E5.5427
G1 X54.556 Y81.507 E5.5479
G1 X54.561 Y81.501 E5.5481
G1 X55.025 Y80.958 E5.5634
G1 X55.030 Y80.952 E5.5636
G1 X55.202 Y80.780 E5.5688
G1 X55.208 Y80.774 E5.5690
G1 X55.751 Y80.311 E5.5844
G1 X55.757 Y80.306 E5.5845
G1 X55.954 Y80.162 E5.5898
G92 E0
G1 E-1.0000 F1600
G1 Z1.090 F1000
; inner perimeter
G1 X58.562 Y83.959 F4800
G1 Z0.090 F1000
G1 E0.0000 F1600
G92 E0
G1 X58.776 Y83.828 E0.0054 F1152
G1 X59.007 Y83.732 E0.0108
G1 X59.250 Y83.674 E0.0162
G1 X59.555 Y83.650 E0.0227
G1 X140.445 Y83.650 E1.7621
G1 X140.750 Y83.674 E1.7687
G1 X140.993 Y83.732 E1.7741
G1 X141.224 Y83.828 E1.7795
G1 X141.438 Y83.959 E1.7849
G1 X141.628 Y84.122 E1.7903
