; G-Code generated by Simplify3D(R) Version 4.0.1
; Feb 28, 2022 at 1:20:29 AM
; Settings Summary
;   processName,Process1
;   applyToModels,emw3_2
;   profileName,Default (modified)
;   profileVersion,2017-03-01 08:00:00
;   baseProfile,
;   printMaterial,PLA
;   printQuality,High
;   printExtruders,
;   extruderName,Primary Extruder
;   extruderToolheadNumber,0
;   extruderDiameter,0.35
;   extruderAutoWidth,0
;   extruderWidth,0.4
;   extrusionMultiplier,0.95
;   extruderUseRetract,1
;   extruderRetractionDistance,1
;   extruderExtraRestartDistance,0
;   extruderRetractionZLift,1
;   extruderRetractionSpeed,1600
;   extruderUseCoasting,0
;   extruderCoastingDistance,0.2
;   extruderUseWipe,0
;   extruderWipeDistance,5
;   primaryExtruder,0
;   layerHeight,0.1
;   topSolidLayers,2
;   bottomSolidLayers,3
;   perimeterOutlines,4
;   printPerimetersInsideOut,1
;   startPointOption,2
;   startPointOriginX,0
;   startPointOriginY,0
;   sequentialIslands,0
;   spiralVaseMode,0
;   firstLayerHeightPercentage,90
;   firstLayerWidthPercentage,100
;   firstLayerUnderspeed,0.4
;   useRaft,0
;   raftExtruder,0
;   raftTopLayers,2
;   raftBaseLayers,1
;   raftOffset,2.4
;   raftSeparationDistance,0.14
;   raftTopInfill,40
;   aboveRaftSpeedMultiplier,0.5
;   useSkirt,1
;   skirtExtruder,0
;   skirtLayers,2
;   skirtOutlines,2
;   skirtOffset,3
;   usePrimePillar,0
;   primePillarExtruder,999
;   primePillarWidth,12
;   primePillarLocation,7
;   primePillarSpeedMultiplier,1
;   useOozeShield,0
;   oozeShieldExtruder,999
;   oozeShieldOffset,2
;   oozeShieldOutlines,1
;   oozeShieldSidewallShape,1
;   oozeShieldSidewallAngle,30
;   oozeShieldSpeedMultiplier,1
;   infillExtruder,0
;   internalInfillPattern,Triangular
;   externalInfillPattern,Rectilinear
;   infillPercentage,45
;   outlineOverlapPercentage,15
;   infillExtrusionWidthPercentage,100
;   minInfillLength,5
;   infillLayerInterval,1
;   internalInfillAngles,0,60,-60
;   overlapInternalInfillAngles,1
;   externalInfillAngles,45,-45
;   generateSupport,1
;   supportExtruder,0
;   supportInfillPercentage,45
;   supportExtraInflation,0
;   supportBaseLayers,0
;   denseSupportExtruder,0
;   denseSupportLayers,0
;   denseSupportInfillPercentage,70
;   supportLayerInterval,1
;   supportHorizontalPartOffset,0.3
;   supportUpperSeparationLayers,1
;   supportLowerSeparationLayers,1
;   supportType,0
;   supportGridSpacing,4
;   maxOverhangAngle,45
;   supportAngles,45
;   temperatureName,Main Extruder
;   temperatureNumber,0
;   temperatureSetpointCount,1
;   temperatureSetpointLayers,1
;   temperatureSetpointTemperatures,197
;   temperatureStabilizeAtStartup,1
;   temperatureHeatedBed,0
;   temperatureRelayBetweenLayers,0
;   temperatureRelayBetweenLoops,0
;   fanLayers,1,2
;   fanSpeeds,0,100
;   blipFanToFullPower,0
;   adjustSpeedForCooling,0
;   minSpeedLayerTime,15
;   minCoolingSpeedSlowdown,20
;   increaseFanForCooling,0
;   minFanLayerTime,45
;   maxCoolingFanSpeed,100
;   increaseFanForBridging,0
;   bridgingFanSpeed,100
;   use5D,1
;   relativeEdistances,0
;   allowEaxisZeroing,1
;   independentExtruderAxes,0
;   includeM10123,0
;   stickySupport,1
;   applyToolheadOffsets,0
;   gcodeXoffset,0
;   gcodeYoffset,0
;   gcodeZoffset,0
;   overrideMachineDefinition,0
;   machineTypeOverride,0
;   strokeXoverride,200
;   strokeYoverride,200
;   strokeZoverride,200
;   originOffsetXoverride,0
;   originOffsetYoverride,0
;   originOffsetZoverride,0
;   homeXdirOverride,-1
;   homeYdirOverride,-1
;   homeZdirOverride,-1
;   flipXoverride,1
;   flipYoverride,-1
;   flipZoverride,1
;   toolheadOffsets,0,0|0,0|0,0|0,0|0,0|0,0
;   overrideFirmwareConfiguration,0
;   firmwareTypeOverride,RepRap (Marlin/Repetier/Sprinter)
;   GPXconfigOverride,r2
;   baudRateOverride,115200
;   overridePrinterModels,0
;   printerModelsOverride
;   startingGcode,G28 ; home all axes
;   layerChangeGcode,
;   retractionGcode,
;   toolChangeGcode,
;   endingGcode,M104 S0 ; turn off extruder,M140 S0 ; turn off bed,M84 ; disable motors
;   exportFileFormat,gcode
;   celebration,0
;   celebrationSong,Random Song
;   postProcessing,
;   defaultSpeed,3600
;   outlineUnderspeed,0.6
;   solidInfillUnderspeed,0.8
;   supportUnderspeed,0.7
;   rapidXYspeed,4800
;   rapidZspeed,1000
;   minBridgingArea,50
;   bridgingExtraInflation,0
;   bridgingExtrusionMultiplier,1
;   bridgingSpeedMultiplier,1
;   useFixedBridgingAngle,0
;   fixedBridgingAngle,0
;   applyBridgingToPerimeters,0
;   filamentDiameters,1.5|1.75|1.75|1.75|1.75|1.75
;   filamentPricesPerKg,46|46|46|46|46|46
;   filamentDensities,1.25|1.25|1.25|1.25|1.25|1.25
;   useMinPrintHeight,0
;   minPrintHeight,0
;   useMaxPrintHeight,0
;   maxPrintHeight,0
;   useDiaphragm,0
;   diaphragmLayerInterval,20
;   robustSlicing,1
;   mergeAllIntoSolid,0
;   onlyRetractWhenCrossingOutline,1
;   retractBetweenLayers,1
;   useRetractionMinTravel,0
;   retractionMinTravel,3
;   retractWhileWiping,0
;   onlyWipeOutlines,1
;   avoidCrossingOutline,0
;   maxMovementDetourFactor,3
;   toolChangeRetractionDistance,12
;   toolChangeExtraRestartDistance,-0.5
;   toolChangeRetractionSpeed,600
;   externalThinWallType,0
;   internalThinWallType,2
;   thinWallAllowedOverlapPercentage,10
;   singleExtrusionMinLength,1
;   singleExtrusionMinPrintingWidthPercentage,50
;   singleExtrusionMaxPrintingWidthPercentage,200
;   singleExtrusionEndpointExtension,0.2
;   horizontalSizeCompensation,0
G90
M82
M106 S0
M104 S197 T0
M109 S197 T0
G28 ; home all axes
G92 E0
G1 E-1.0000 F1600
G1 Z1.090 F1000
; process Process1
; layer 1, Z = 0.090
T0
; tool H0.100 W0.400
; skirt
G1 X55.925 Y80.034 F4800
G1 Z0.090 F1000
G1 E0.0000 F480
G92 E0
G1 X55.945 Y80.021 E0.0005 F1440
G1 X56.568 Y79.640 E0.0162
G1 X56.588 Y79.628 E0.0167
G1 X56.819 Y79.511 E0.0223
G1 X56.841 Y79.501 E0.0228
G1 X57.515 Y79.221 E0.0385
G1 X57.537 Y79.213 E0.0390
G1 X57.784 Y79.133 E0.0446
G1 X57.807 Y79.127 E0.0451
G1 X58.516 Y78.956 E0.0608
G1 X58.540 Y78.951 E0.0613
G1 X58.796 Y78.911 E0.0669
G1 X58.819 Y78.908 E0.0674
G1 X59.482 Y78.856 E0.0817
G1 X59.494 Y78.855 E0.0819
G1 X59.623 Y78.850 E0.0847
G1 X59.635 Y78.850 E0.0850
G1 X140.365 Y78.850 E1.8209
G1 X140.377 Y78.850 E1.8212
G1 X140.506 Y78.855 E1.8240
G1 X140.518 Y78.856 E1.8242
G1 X141.181 Y78.908 E1.8385
G1 X141.204 Y78.911 E1.8391
G1 X141.460 Y78.951 E1.8446
G1 X141.484 Y78.956 E1.8451
G1 X142.193 Y79.127 E1.8608
G1 X142.216 Y79.133 E1.8613
G1 X142.463 Y79.213 E1.8669
G1 X142.485 Y79.221 E1.8674
G1 X143.159 Y79.501 E1.8831
G1 X143.181 Y79.510 E1.8836
G1 X143.412 Y79.628 E1.8892
G1 X143.433 Y79.640 E1.8897
G1 X144.055 Y80.021 E1.9054
G1 X144.075 Y80.034 E1.9059
G1 X144.284 Y80.187 E1.9115
G1 X144.303 Y80.201 E1.9120
G1 X144.858 Y80.675 E1.9277
G1 X144.875 Y80.691 E1.9282
G1 X145.059 Y80.875 E1.9338
G1 X145.075 Y80.892 E1.9343
G1 X145.549 Y81.447 E1.9500
G1 X145.563 Y81.466 E1.9505
G1 X145.716 Y81.675 E1.9561
G1 X145.729 Y81.695 E1.9566
G1 X146.110 Y82.318 E1.9723
G1 X146.122 Y82.338 E1.9728
G1 X146.240 Y82.569 E1.9784
G1 X146.249 Y82.591 E1.9789
G1 X146.529 Y83.265 E1.9946
G1 X146.537 Y83.287 E1.9951
G1 X146.617 Y83.534 E2.0006
G1 X146.623 Y83.556 E2.0012
G1 X146.794 Y84.266 E2.0169
G1 X146.798 Y84.289 E2.0174
G1 X146.839 Y84.546 E2.0229
G1 X146.842 Y84.569 E2.0234
G1 X146.894 Y85.232 E2.0377
G1 X146.895 Y85.244 E2.0380
G1 X146.900 Y85.373 E2.0408
G1 X146.900 Y85.385 E2.0410
G1 X146.900 Y114.615 E2.6696
G1 X146.900 Y114.627 E2.6698
G1 X146.895 Y114.756 E2.6726
G1 X146.894 Y114.768 E2.6729
G1 X146.842 Y115.431 E2.6872
G1 X146.839 Y115.454 E2.6877
G1 X146.798 Y115.711 E2.6933
G1 X146.794 Y115.734 E2.6938
G1 X146.623 Y116.444 E2.7095
G1 X146.617 Y116.466 E2.7100
G1 X146.537 Y116.713 E2.7155
G1 X146.529 Y116.735 E2.7161
G1 X146.249 Y117.409 E2.7318
G1 X146.240 Y117.431 E2.7323
G1 X146.122 Y117.662 E2.7378
G1 X146.110 Y117.682 E2.7383
G1 X145.729 Y118.305 E2.7540
G1 X145.716 Y118.324 E2.7546
G1 X145.563 Y118.534 E2.7601
G1 X145.549 Y118.553 E2.7606
G1 X145.075 Y119.108 E2.7763
G1 X145.059 Y119.125 E2.7768
G1 X144.875 Y119.309 E2.7824
G1 X144.858 Y119.325 E2.7829
G1 X144.303 Y119.799 E2.7986
G1 X144.284 Y119.813 E2.7991
G1 X144.075 Y119.966 E2.8047
G1 X144.055 Y119.979 E2.8052
G1 X143.432 Y120.360 E2.8209
G1 X143.412 Y120.372 E2.8214
G1 X143.181 Y120.490 E2.8270
G1 X143.159 Y120.499 E2.8275
G1 X142.485 Y120.779 E2.8432
G1 X142.463 Y120.787 E2.8437
G1 X142.216 Y120.867 E2.8493
G1 X142.194 Y120.873 E2.8498
G1 X141.484 Y121.044 E2.8655
G1 X141.461 Y121.048 E2.8660
G1 X141.204 Y121.089 E2.8716
G1 X141.181 Y121.092 E2.8721
G1 X140.518 Y121.144 E2.8864
G1 X140.506 Y121.145 E2.8866
G1 X140.377 Y121.150 E2.8894
G1 X140.365 Y121.150 E2.8897
G1 X59.635 Y121.150 E4.6257
G1 X59.623 Y121.150 E4.6259
G1 X59.494 Y121.145 E4.6287
G1 X59.482 Y121.144 E4.6289
G1 X58.819 Y121.092 E4.6433
G1 X58.796 Y121.089 E4.6438
G1 X58.539 Y121.048 E4.6493
G1 X58.516 Y121.044 E4.6498
G1 X57.806 Y120.873 E4.6655
G1 X57.784 Y120.867 E4.6660
G1 X57.537 Y120.787 E4.6716
G1 X57.515 Y120.779 E4.6721
G1 X56.841 Y120.499 E4.6878
G1 X56.819 Y120.490 E4.6883
G1 X56.588 Y120.372 E4.6939
G1 X56.568 Y120.360 E4.6944
G1 X55.945 Y119.979 E4.7101
G1 X55.926 Y119.966 E4.7106
G1 X55.716 Y119.813 E4.7162
G1 X55.697 Y119.799 E4.7167
G1 X55.142 Y119.325 E4.7324
G1 X55.125 Y119.309 E4.7329
G1 X54.941 Y119.125 E4.7385
G1 X54.925 Y119.108 E4.7390
G1 X54.451 Y118.553 E4.7547
G1 X54.437 Y118.534 E4.7552
G1 X54.284 Y118.324 E4.7608
G1 X54.271 Y118.305 E4.7613
G1 X53.890 Y117.682 E4.7770
G1 X53.878 Y117.662 E4.7775
G1 X53.760 Y117.431 E4.7831
G1 X53.751 Y117.409 E4.7836
G1 X53.471 Y116.735 E4.7993
G1 X53.463 Y116.713 E4.7998
G1 X53.383 Y116.466 E4.8054
G1 X53.377 Y116.444 E4.8059
G1 X53.206 Y115.734 E4.8216
G1 X53.202 Y115.711 E4.8221
G1 X53.161 Y115.454 E4.8276
G1 X53.158 Y115.431 E4.8281
G1 X53.106 Y114.768 E4.8425
G1 X53.105 Y114.756 E4.8427
G1 X53.100 Y114.627 E4.8455
G1 X53.100 Y114.615 E4.8457
G1 X53.100 Y85.385 E5.4743
G1 X53.100 Y85.373 E5.4745
G1 X53.105 Y85.244 E5.4773
G1 X53.106 Y85.232 E5.4776
G1 X53.158 Y84.569 E5.4919
G1 X53.161 Y84.546 E5.4924
G1 X53.202 Y84.289 E5.4980
G1 X53.206 Y84.266 E5.4985
G1 X53.377 Y83.556 E5.5142
G1 X53.383 Y83.534 E5.5147
G1 X53.463 Y83.287 E5.5203
G1 X53.471 Y83.265 E5.5208
G1 X53.751 Y82.591 E5.5365
G1 X53.760 Y82.569 E5.5370
G1 X53.878 Y82.338 E5.5425
G1 X53.890 Y82.318 E5.5431
G1 X54.271 Y81.695 E5.5587
G1 X54.284 Y81.676 E5.5593
G1 X54.437 Y81.466 E5.5648
G1 X54.451 Y81.447 E5.5653
G1 X54.925 Y80.892 E5.5810
G1 X54.941 Y80.875 E5.5815
G1 X55.125 Y80.691 E5.5871
G1 X55.142 Y80.675 E5.5876
G1 X55.697 Y80.201 E5.6033
G1 X55.716 Y80.187 E5.6038
G1 X55.925 Y80.034 E5.6094
G1 X56.154 Y80.363 F4800
G92 E0
G1 X56.161 Y80.358 E0.0002 F1440
G1 X56.770 Y79.985 E0.0155
G1 X56.777 Y79.981 E0.0157
G1 X56.994 Y79.870 E0.0209
G1 X57.001 Y79.867 E0.0211
G1 X57.661 Y79.594 E0.0365
G1 X57.668 Y79.591 E0.0366
G1 X57.900 Y79.516 E0.0419
G1 X57.908 Y79.514 E0.0420
G1 X58.602 Y79.347 E0.0574
G1 X58.610 Y79.345 E0.0576
G1 X58.850 Y79.307 E0.0628
G1 X58.858 Y79.306 E0.0630
G1 X59.510 Y79.255 E0.0770
G1 X59.514 Y79.255 E0.0771
G1 X59.635 Y79.250 E0.0797
G1 X59.639 Y79.250 E0.0798
G1 X140.361 Y79.250 E1.8156
G1 X140.365 Y79.250 E1.8157
G1 X140.486 Y79.255 E1.8183
G1 X140.490 Y79.255 E1.8184
G1 X141.142 Y79.306 E1.8325
G1 X141.150 Y79.307 E1.8326
G1 X141.390 Y79.345 E1.8379
G1 X141.398 Y79.347 E1.8380
G1 X142.092 Y79.514 E1.8534
G1 X142.100 Y79.516 E1.8536
G1 X142.332 Y79.591 E1.8588
G1 X142.339 Y79.594 E1.8590
G1 X142.999 Y79.867 E1.8743
G1 X143.006 Y79.870 E1.8745
G1 X143.223 Y79.981 E1.8797
G1 X143.230 Y79.985 E1.8799
G1 X143.839 Y80.358 E1.8953
G1 X143.846 Y80.363 E1.8954
G1 X144.043 Y80.506 E1.9007
G1 X144.049 Y80.511 E1.9009
G1 X144.592 Y80.974 E1.9162
G1 X144.598 Y80.980 E1.9164
G1 X144.770 Y81.152 E1.9216
G1 X144.775 Y81.158 E1.9218
G1 X145.239 Y81.701 E1.9372
G1 X145.244 Y81.707 E1.9373
G1 X145.387 Y81.904 E1.9426
G1 X145.392 Y81.911 E1.9427
G1 X145.765 Y82.520 E1.9581
G1 X145.769 Y82.527 E1.9583
G1 X145.880 Y82.744 E1.9635
G1 X145.883 Y82.751 E1.9637
G1 X146.156 Y83.411 E1.9790
G1 X146.159 Y83.418 E1.9792
G1 X146.234 Y83.650 E1.9844
G1 X146.236 Y83.657 E1.9846
G1 X146.403 Y84.352 E2.0000
G1 X146.405 Y84.360 E2.0001
G1 X146.443 Y84.600 E2.0054
G1 X146.444 Y84.608 E2.0055
G1 X146.495 Y85.260 E2.0196
G1 X146.495 Y85.263 E2.0197
G1 X146.500 Y85.385 E2.0223
G1 X146.500 Y85.389 E2.0224
G1 X146.500 Y114.611 E2.6507
G1 X146.500 Y114.615 E2.6508
G1 X146.495 Y114.736 E2.6535
G1 X146.495 Y114.740 E2.6535
G1 X146.444 Y115.392 E2.6676
G1 X146.443 Y115.400 E2.6678
G1 X146.405 Y115.640 E2.6730
G1 X146.403 Y115.648 E2.6732
G1 X146.236 Y116.342 E2.6885
G1 X146.234 Y116.350 E2.6887
G1 X146.159 Y116.582 E2.6939
G1 X146.156 Y116.589 E2.6941
G1 X145.883 Y117.249 E2.7095
G1 X145.880 Y117.256 E2.7096
G1 X145.769 Y117.473 E2.7149
G1 X145.765 Y117.480 E2.7150
G1 X145.392 Y118.089 E2.7304
G1 X145.387 Y118.096 E2.7306
G1 X145.244 Y118.293 E2.7358
G1 X145.239 Y118.299 E2.7360
G1 X144.775 Y118.842 E2.7513
G1 X144.770 Y118.848 E2.7515
G1 X144.598 Y119.020 E2.7567
G1 X144.592 Y119.026 E2.7569
G1 X144.049 Y119.489 E2.7723
G1 X144.043 Y119.494 E2.7724
G1 X143.846 Y119.637 E2.7777
G1 X143.839 Y119.642 E2.7778
G1 X143.230 Y120.015 E2.7932
G1 X143.223 Y120.019 E2.7934
G1 X143.006 Y120.130 E2.7986
G1 X142.999 Y120.133 E2.7988
G1 X142.339 Y120.406 E2.8141
G1 X142.332 Y120.409 E2.8143
G1 X142.100 Y120.484 E2.8196
G1 X142.093 Y120.486 E2.8197
G1 X141.398 Y120.653 E2.8351
G1 X141.390 Y120.655 E2.8353
G1 X141.150 Y120.693 E2.8405
G1 X141.142 Y120.694 E2.8407
G1 X140.490 Y120.745 E2.8547
G1 X140.486 Y120.745 E2.8548
G1 X140.365 Y120.750 E2.8574
G1 X140.361 Y120.750 E2.8575
G1 X59.639 Y120.750 E4.5933
G1 X59.635 Y120.750 E4.5934
G1 X59.514 Y120.745 E4.5960
G1 X59.510 Y120.745 E4.5961
G1 X58.858 Y120.694 E4.6101
G1 X58.850 Y120.693 E4.6103
G1 X58.610 Y120.655 E4.6156
G1 X58.602 Y120.653 E4.6157
G1 X57.907 Y120.486 E4.6311
G1 X57.900 Y120.484 E4.6313
G1 X57.668 Y120.409 E4.6365
G1 X57.661 Y120.406 E4.6367
G1 X57.001 Y120.133 E4.6520
G1 X56.994 Y120.130 E4.6522
G1 X56.777 Y120.019 E4.6574
G1 X56.770 Y120.015 E4.6576
G1 X56.161 Y119.642 E4.6730
G1 X56.154 Y119.638 E4.6731
G1 X55.957 Y119.494 E4.6784
G1 X55.951 Y119.489 E4.6785
G1 X55.408 Y119.025 E4.6939
G1 X55.402 Y119.020 E4.6941
G1 X55.230 Y118.848 E4.6993
G1 X55.225 Y118.842 E4.6995
G1 X54.761 Y118.299 E4.7148
G1 X54.756 Y118.293 E4.7150
G1 X54.612 Y118.096 E4.7202
G1 X54.608 Y118.089 E4.7204
G1 X54.235 Y117.480 E4.7358
G1 X54.231 Y117.473 E4.7359
G1 X54.120 Y117.256 E4.7412
G1 X54.117 Y117.249 E4.7413
G1 X53.844 Y116.589 E4.7567
G1 X53.841 Y116.582 E4.7569
G1 X53.766 Y116.350 E4.7621
G1 X53.764 Y116.343 E4.7623
G1 X53.597 Y115.648 E4.7776
G1 X53.595 Y115.640 E4.7778
G1 X53.557 Y115.400 E4.7830
G1 X53.556 Y115.392 E4.7832
G1 X53.505 Y114.740 E4.7973
G1 X53.505 Y114.736 E4.7974
G1 X53.500 Y114.615 E4.8000
G1 X53.500 Y114.611 E4.8001
G1 X53.500 Y85.389 E5.4284
G1 X53.500 Y85.385 E5.4285
G1 X53.505 Y85.264 E5.4311
G1 X53.505 Y85.260 E5.4312
G1 X53.556 Y84.608 E5.4453
G1 X53.557 Y84.600 E5.4454
G1 X53.595 Y84.360 E5.4507
G1 X53.597 Y84.352 E5.4508
G1 X53.764 Y83.657 E5.4662
G1 X53.766 Y83.650 E5.4664
G1 X53.841 Y83.418 E5.4716
G1 X53.844 Y83.411 E5.4718
G1 X54.117 Y82.751 E5.4871
G1 X54.120 Y82.744 E5.4873
G1 X54.231 Y82.527 E5.4925
G1 X54.235 Y82.520 E5.4927
G1 X54.608 Y81.911 E5.5081
G1 X54.612 Y81.904 E5.5082
G1 X54.756 Y81.707 E5.5135
G1 X54.761 Y81.701 E5.5137
G1 X55.224 Y81.158 E5.5290
G1 X55.230 Y81.152 E5.5292
G1 X55.402 Y80.980 E5.5344
G1 X55.408 Y80.974 E5.5346
G1 X55.951 Y80.511 E5.5500
G1 X55.957 Y80.506 E5.5501
G1 X56.154 Y80.362 E5.5554
G92 E0
G1 E-1.0000 F1600
G1 Z1.090 F1000
; inner perimeter
G1 X58.762 Y84.159 F4800
G1 Z0.090 F1000
G1 E0.0000 F1600
G92 E0
G1 X58.976 Y84.028 E0.0054 F1152
G1 X59.207 Y83.932 E0.0108
G1 X59.450 Y83.874 E0.0162
G1 X59.755 Y83.850 E0.0227
G1 X140.245 Y83.850 E1.7535
G1 X140.550 Y83.874 E1.7601
G1 X140.793 Y83.932 E1.7655
G1 X141.024 Y84.028 E1.7709
G1 X141.238 Y84.159 E1.7763
G1 X141.428 Y84.322 E1.7817
