; G-Code generated by Simplify3D(R) Version 4.0.1
; Feb 28, 2022 at 1:54:00 AM
; Settings Summary
;   processName,Process1
;   applyToModels,sw_beta
;   profileName,Default (modified)
;   profileVersion,2017-03-01 08:00:00
;   baseProfile,
;   printMaterial,PLA
;   printQuality,High
;   printExtruders,
;   extruderName,Primary Extruder
;   extruderToolheadNumber,0
;   extruderDiameter,0.35
;   extruderAutoWidth,0
;   extruderWidth,0.4
;   extrusionMultiplier,0.95
;   extruderUseRetract,1
;   extruderRetractionDistance,1
;   extruderExtraRestartDistance,0
;   extruderRetractionZLift,1
;   extruderRetractionSpeed,1600
;   extruderUseCoasting,0
;   extruderCoastingDistance,0.2
;   extruderUseWipe,0
;   extruderWipeDistance,5
;   primaryExtruder,0
;   layerHeight,0.1
;   topSolidLayers,2
;   bottomSolidLayers,3
;   perimeterOutlines,4
;   printPerimetersInsideOut,1
;   startPointOption,2
;   startPointOriginX,0
;   startPointOriginY,0
;   sequentialIslands,0
;   spiralVaseMode,0
;   firstLayerHeightPercentage,90
;   firstLayerWidthPercentage,100
;   firstLayerUnderspeed,0.4
;   useRaft,0
;   raftExtruder,0
;   raftTopLayers,2
;   raftBaseLayers,1
;   raftOffset,2.4
;   raftSeparationDistance,0.14
;   raftTopInfill,40
;   aboveRaftSpeedMultiplier,0.5
;   useSkirt,1
;   skirtExtruder,0
;   skirtLayers,2
;   skirtOutlines,2
;   skirtOffset,3
;   usePrimePillar,0
;   primePillarExtruder,999
;   primePillarWidth,12
;   primePillarLocation,7
;   primePillarSpeedMultiplier,1
;   useOozeShield,0
;   oozeShieldExtruder,999
;   oozeShieldOffset,2
;   oozeShieldOutlines,1
;   oozeShieldSidewallShape,1
;   oozeShieldSidewallAngle,30
;   oozeShieldSpeedMultiplier,1
;   infillExtruder,0
;   internalInfillPattern,Triangular
;   externalInfillPattern,Rectilinear
;   infillPercentage,45
;   outlineOverlapPercentage,15
;   infillExtrusionWidthPercentage,100
;   minInfillLength,5
;   infillLayerInterval,1
;   internalInfillAngles,0,60,-60
;   overlapInternalInfillAngles,1
;   externalInfillAngles,45,-45
;   generateSupport,1
;   supportExtruder,0
;   supportInfillPercentage,45
;   supportExtraInflation,0
;   supportBaseLayers,0
;   denseSupportExtruder,0
;   denseSupportLayers,0
;   denseSupportInfillPercentage,70
;   supportLayerInterval,1
;   supportHorizontalPartOffset,0.3
;   supportUpperSeparationLayers,1
;   supportLowerSeparationLayers,1
;   supportType,0
;   supportGridSpacing,4
;   maxOverhangAngle,45
;   supportAngles,45
;   temperatureName,Main Extruder
;   temperatureNumber,0
;   temperatureSetpointCount,1
;   temperatureSetpointLayers,1
;   temperatureSetpointTemperatures,197
;   temperatureStabilizeAtStartup,1
;   temperatureHeatedBed,0
;   temperatureRelayBetweenLayers,0
;   temperatureRelayBetweenLoops,0
;   fanLayers,1,2
;   fanSpeeds,0,100
;   blipFanToFullPower,0
;   adjustSpeedForCooling,0
;   minSpeedLayerTime,15
;   minCoolingSpeedSlowdown,20
;   increaseFanForCooling,0
;   minFanLayerTime,45
;   maxCoolingFanSpeed,100
;   increaseFanForBridging,0
;   bridgingFanSpeed,100
;   use5D,1
;   relativeEdistances,0
;   allowEaxisZeroing,1
;   independentExtruderAxes,0
;   includeM10123,0
;   stickySupport,1
;   applyToolheadOffsets,0
;   gcodeXoffset,0
;   gcodeYoffset,0
;   gcodeZoffset,0
;   overrideMachineDefinition,0
;   machineTypeOverride,0
;   strokeXoverride,200
;   strokeYoverride,200
;   strokeZoverride,200
;   originOffsetXoverride,0
;   originOffsetYoverride,0
;   originOffsetZoverride,0
;   homeXdirOverride,-1
;   homeYdirOverride,-1
;   homeZdirOverride,-1
;   flipXoverride,1
;   flipYoverride,-1
;   flipZoverride,1
;   toolheadOffsets,0,0|0,0|0,0|0,0|0,0|0,0
;   overrideFirmwareConfiguration,0
;   firmwareTypeOverride,RepRap (Marlin/Repetier/Sprinter)
;   GPXconfigOverride,r2
;   baudRateOverride,115200
;   overridePrinterModels,0
;   printerModelsOverride
;   startingGcode,G28 ; home all axes
;   layerChangeGcode,
;   retractionGcode,
;   toolChangeGcode,
;   endingGcode,M104 S0 ; turn off extruder,M140 S0 ; turn off bed,M84 ; disable motors
;   exportFileFormat,gcode
;   celebration,0
;   celebrationSong,Random Song
;   postProcessing,
;   defaultSpeed,600
;   outlineUnderspeed,0.6
;   solidInfillUnderspeed,0.8
;   supportUnderspeed,0.7
;   rapidXYspeed,4800
;   rapidZspeed,1000
;   minBridgingArea,50
;   bridgingExtraInflation,0
;   bridgingExtrusionMultiplier,1
;   bridgingSpeedMultiplier,1
;   useFixedBridgingAngle,0
;   fixedBridgingAngle,0
;   applyBridgingToPerimeters,0
;   filamentDiameters,1.5|1.75|1.75|1.75|1.75|1.75
;   filamentPricesPerKg,46|46|46|46|46|46
;   filamentDensities,1.25|1.25|1.25|1.25|1.25|1.25
;   useMinPrintHeight,0
;   minPrintHeight,0
;   useMaxPrintHeight,0
;   maxPrintHeight,0
;   useDiaphragm,0
;   diaphragmLayerInterval,20
;   robustSlicing,1
;   mergeAllIntoSolid,0
;   onlyRetractWhenCrossingOutline,1
;   retractBetweenLayers,1
;   useRetractionMinTravel,0
;   retractionMinTravel,3
;   retractWhileWiping,0
;   onlyWipeOutlines,1
;   avoidCrossingOutline,0
;   maxMovementDetourFactor,3
;   toolChangeRetractionDistance,12
;   toolChangeExtraRestartDistance,-0.5
;   toolChangeRetractionSpeed,600
;   externalThinWallType,0
;   internalThinWallType,2
;   thinWallAllowedOverlapPercentage,10
;   singleExtrusionMinLength,1
;   singleExtrusionMinPrintingWidthPercentage,50
;   singleExtrusionMaxPrintingWidthPercentage,200
;   singleExtrusionEndpointExtension,0.2
;   horizontalSizeCompensation,0
G90
M82
M106 S0
M104 S197 T0
M109 S197 T0
G28 ; home all axes
G92 E0
G1 E-1.0000 F1600
G1 Z1.090 F1000
; process Process1
; layer 1, Z = 0.090
T0
; tool H0.100 W0.400
; skirt
G1 X97.116 Y94.667 F4800
G1 Z0.090 F1000
G1 E0.0000 F480
G92 E0
G1 X99.042 Y92.741 E0.0586 F240
G1 X99.263 Y92.650 E0.0637
G1 X102.737 Y92.650 E0.1384
G1 X102.958 Y92.741 E0.1435
G1 X104.884 Y94.667 E0.2021
G1 X104.975 Y94.888 E0.2073
G1 X104.975 Y105.112 E0.4271
G1 X104.884 Y105.333 E0.4322
G1 X102.958 Y107.259 E0.4908
G1 X102.737 Y107.350 E0.4959
G1 X99.263 Y107.350 E0.5706
G1 X99.042 Y107.259 E0.5758
G1 X97.116 Y105.333 E0.6344
G1 X97.025 Y105.112 E0.6395
G1 X97.025 Y104.991 E0.6421
G1 X95.116 Y103.083 E0.7001
G1 X95.025 Y102.862 E0.7053
G1 X95.025 Y97.138 E0.8283
G1 X95.116 Y96.917 E0.8335
G1 X97.025 Y95.009 E0.8915
G1 X97.025 Y94.888 E0.8941
G1 X97.116 Y94.667 E0.8993
G1 X97.455 Y94.894 F4800
G92 E0
G1 X99.269 Y93.080 E0.0552 F240
G1 X99.343 Y93.050 E0.0569
G1 X102.657 Y93.050 E0.1281
G1 X102.731 Y93.080 E0.1299
G1 X104.545 Y94.894 E0.1850
G1 X104.575 Y94.968 E0.1867
G1 X104.575 Y105.032 E0.4032
G1 X104.545 Y105.106 E0.4049
G1 X102.731 Y106.920 E0.4600
G1 X102.657 Y106.950 E0.4617
G1 X99.343 Y106.950 E0.5330
G1 X99.269 Y106.920 E0.5347
G1 X97.455 Y105.106 E0.5899
G1 X97.425 Y105.032 E0.5916
G1 X97.425 Y104.700 E0.5987
G1 X97.343 Y104.700 E0.6005
G1 X97.269 Y104.670 E0.6022
G1 X95.455 Y102.856 E0.6574
G1 X95.425 Y102.782 E0.6591
G1 X95.425 Y97.218 E0.7787
G1 X95.455 Y97.144 E0.7805
G1 X97.269 Y95.330 E0.8356
G1 X97.343 Y95.300 E0.8373
G1 X97.425 Y95.300 E0.8391
G1 X97.425 Y94.968 E0.8462
G1 X97.455 Y94.894 E0.8479
G92 E0
G1 E-1.0000 F1600
G1 Z1.090 F1000
; inner perimeter
G1 X99.225 Y99.100 F4800
G1 Z0.090 F1000
G1 E0.0000 F1600
G92 E0
G1 X100.025 Y99.100 E0.0172 F192
G1 X100.025 Y100.900 E0.0559
G1 X99.225 Y100.900 E0.0731
G1 X99.225 Y99.100 E0.1118
; outer perimeter
G1 X98.825 Y98.700 F4800
G92 E0
G1 X100.825 Y98.700 E0.0430 F144
G1 X100.825 Y96.450 E0.0914
G1 X101.175 Y96.450 E0.0989
G1 X101.175 Y98.800 E0.1495
G1 X100.425 Y98.800 E0.1656
G1 X100.425 Y101.200 E0.2172
G1 X101.175 Y101.200 E0.2333
G1 X101.175 Y103.550 E0.2838
G1 X100.825 Y103.550 E0.2914
G1 X100.825 Y101.300 E0.3398
G1 X98.825 Y101.300 E0.3828
G1 X98.825 Y98.700 E0.4387
; gap fill
G1 X99.569 Y99.569 F4800
G92 E0
G1 X99.681 Y99.681 E0.0034 F192
G1 X99.681 Y100.247 E0.0156
G1 X99.569 Y100.135 E0.0190
G92 E0
G1 E-1.0000 F1600
G1 Z1.190 F1000
; layer 2, Z = 0.190
M106 S255
; skirt
G1 X95.025 Y102.862 F4800
G1 Z0.190 F1000
G1 E0.0000 F1600
G92 E0
G1 X95.025 Y97.138 E0.1231 F600
G1 X95.116 Y96.917 E0.1282
G1 X97.025 Y95.009 E0.1863
G1 X97.025 Y94.888 E0.1889
G1 X97.116 Y94.667 E0.1940
G1 X99.042 Y92.741 E0.2526
G1 X99.263 Y92.650 E0.2577
G1 X102.737 Y92.650 E0.3324
G1 X102.958 Y92.741 E0.3375
G1 X104.884 Y94.667 E0.3961
G1 X104.975 Y94.888 E0.4012
G1 X104.975 Y105.112 E0.6211
G1 X104.884 Y105.333 E0.6262
G1 X102.958 Y107.259 E0.6848
G1 X102.737 Y107.350 E0.6899
G1 X99.263 Y107.350 E0.7646
G1 X99.042 Y107.259 E0.7698
G1 X97.116 Y105.333 E0.8283
G1 X97.025 Y105.112 E0.8335
G1 X97.025 Y104.991 E0.8361
G1 X95.116 Y103.083 E0.8941
G1 X95.025 Y102.862 E0.8993
G1 X95.425 Y102.782 F4800
G92 E0
G1 X95.425 Y97.218 E0.1197 F600
G1 X95.455 Y97.144 E0.1214
G1 X97.269 Y95.330 E0.1765
G1 X97.343 Y95.300 E0.1782
G1 X97.425 Y95.300 E0.1800
G1 X97.425 Y94.968 E0.1872
G1 X97.455 Y94.894 E0.1889
G1 X99.269 Y93.080 E0.2440
G1 X99.343 Y93.050 E0.2457
G1 X102.657 Y93.050 E0.3170
G1 X102.731 Y93.080 E0.3187
G1 X104.545 Y94.894 E0.3739
G1 X104.575 Y94.968 E0.3756
G1 X104.575 Y105.032 E0.5920
G1 X104.545 Y105.106 E0.5937
G1 X102.731 Y106.920 E0.6489
G1 X102.657 Y106.950 E0.6506
G1 X99.343 Y106.950 E0.7219
G1 X99.269 Y106.920 E0.7236
G1 X97.455 Y105.106 E0.7787
G1 X97.425 Y105.032 E0.7805
G1 X97.425 Y104.700 E0.7876
G1 X97.343 Y104.700 E0.7894
G1 X97.269 Y104.670 E0.7911
G1 X95.455 Y102.856 E0.8462
G1 X95.425 Y102.782 E0.8479
G92 E0
G1 E-1.0000 F1600
G1 Z1.190 F1000
; inner perimeter
G1 X99.225 Y100.900 F4800
G1 Z0.190 F1000
G1 E0.0000 F1600
G92 E0
G1 X99.225 Y99.100 E0.0387 F480
G1 X100.025 Y99.100 E0.0559
G1 X100.025 Y100.900 E0.0946
G1 X99.225 Y100.900 E0.1118
; outer perimeter
G1 X98.825 Y101.300 F4800
G92 E0
G1 X98.825 Y98.700 E0.0559 F360
G1 X100.825 Y98.700 E0.0989
G1 X100.825 Y96.450 E0.1473
G1 X101.175 Y96.450 E0.1548
G1 X101.175 Y98.800 E0.2054
G1 X100.425 Y98.800 E0.2215
G1 X100.425 Y101.200 E0.2731
G1 X101.175 Y101.200 E0.2892
G1 X101.175 Y103.550 E0.3398
G1 X100.825 Y103.550 E0.3473
G1 X100.825 Y101.300 E0.3957
G1 X98.825 Y101.300 E0.4387
; gap fill
G1 X99.569 Y100.431 F4800
G92 E0
G1 X99.681 Y100.319 E0.0034 F480
G1 X99.681 Y99.753 E0.0156
G1 X99.569 Y99.865 E0.0190
G92 E0
G1 E-1.0000 F1600
G1 Z1.290 F1000
; layer 3, Z = 0.290
; inner perimeter
G1 X99.225 Y99.100 F4800
G1 Z0.290 F1000
G1 E0.0000 F1600
G92 E0
G1 X100.025 Y99.100 E0.0172 F480
G1 X100.025 Y100.900 E0.0559
G1 X99.225 Y100.900 E0.0731
G1 X99.225 Y99.100 E0.1118
; outer perimeter
G1 X98.825 Y98.700 F4800
G92 E0
G1 X100.825 Y98.700 E0.0430 F360
G1 X100.825 Y96.450 E0.0914
G1 X101.175 Y96.450 E0.0989
G1 X101.175 Y98.800 E0.1495
G1 X100.425 Y98.800 E0.1656
G1 X100.425 Y101.200 E0.2172
G1 X101.175 Y101.200 E0.2333
G1 X101.175 Y103.550 E0.2838
G1 X100.825 Y103.550 E0.2914
G1 X100.825 Y101.300 E0.3398
G1 X98.825 Y101.300 E0.3828
G1 X98.825 Y98.700 E0.4387
; gap fill
G1 X99.569 Y99.569 F4800
G92 E0
G1 X99.681 Y99.681 E0.0034 F480
G1 X99.681 Y100.247 E0.0156
G1 X99.569 Y100.135 E0.0190
G92 E0
G1 E-1.0000 F1600
G1 Z1.390 F1000
; layer 4, Z = 0.390
; inner perimeter
G1 X99.225 Y100.900 F4800
G1 Z0.390 F1000
G1 E0.0000 F1600
G92 E0
G1 X99.225 Y99.100 E0.0387 F480
G1 X100.025 Y99.100 E0.0559
G1 X100.025 Y100.900 E0.0946
G1 X99.225 Y100.900 E0.1118
; outer perimeter
G1 X98.825 Y101.300 F4800
G92 E0
G1 X98.825 Y98.700 E0.0559 F360
G1 X100.825 Y98.700 E0.0989
G1 X100.825 Y96.450 E0.1473
G1 X101.175 Y96.450 E0.1548
G1 X101.175 Y98.800 E0.2054
G1 X100.425 Y98.800 E0.2215
G1 X100.425 Y101.200 E0.2731
G1 X101.175 Y101.200 E0.2892
G1 X101.175 Y103.550 E0.3398
G1 X100.825 Y103.550 E0.3473
G1 X100.825 Y101.300 E0.3957
G1 X98.825 Y101.300 E0.4387
; gap fill
G1 X99.569 Y100.431 F4800
G92 E0
G1 X99.681 Y100.319 E0.0034 F480
G1 X99.681 Y99.753 E0.0156
G1 X99.569 Y99.865 E0.0190
G92 E0
G1 E-1.0000 F1600
G1 Z1.490 F1000
; layer 5, Z = 0.490
; inner perimeter
G1 X99.225 Y99.100 F4800
G1 Z0.490 F1000
G1 E0.0000 F1600
G92 E0
G1 X100.025 Y99.100 E0.0172 F480
G1 X100.025 Y100.900 E0.0559
G1 X99.225 Y100.900 E0.0731
G1 X99.225 Y99.100 E0.1118
; outer perimeter
G1 X98.825 Y98.700 F4800
G92 E0
G1 X100.825 Y98.700 E0.0430 F360
G1 X100.825 Y96.450 E0.0914
G1 X101.175 Y96.450 E0.0989
G1 X101.175 Y98.800 E0.1495
G1 X100.425 Y98.800 E0.1656
G1 X100.425 Y101.200 E0.2172
G1 X101.175 Y101.200 E0.2333
G1 X101.175 Y103.550 E0.2838
G1 X100.825 Y103.550 E0.2914
G1 X100.825 Y101.300 E0.3398
G1 X98.825 Y101.300 E0.3828
G1 X98.825 Y98.700 E0.4387
; gap fill
G1 X99.569 Y99.569 F4800
G92 E0
G1 X99.681 Y99.681 E0.0034 F480
G1 X99.681 Y100.247 E0.0156
G1 X99.569 Y100.135 E0.0190
G92 E0
G1 E-1.0000 F1600
G1 Z1.590 F1000
; layer 6, Z = 0.590
; inner perimeter
G1 X99.225 Y100.900 F4800
G1 Z0.590 F1000
G1 E0.0000 F1600
G92 E0
G1 X99.225 Y99.100 E0.0387 F480
G1 X100.025 Y99.100 E0.0559
G1 X100.025 Y100.900 E0.0946
G1 X99.225 Y100.900 E0.1118
; outer perimeter
G1 X98.825 Y101.300 F4800
G92 E0
G1 X98.825 Y98.700 E0.0559 F360
G1 X100.825 Y98.700 E0.0989
G1 X100.825 Y96.450 E0.1473
G1 X101.175 Y96.450 E0.1548
G1 X101.175 Y98.800 E0.2054
G1 X100.425 Y98.800 E0.2215
G1 X100.425 Y101.200 E0.2731
G1 X101.175 Y101.200 E0.2892
G1 X101.175 Y103.550 E0.3398
G1 X100.825 Y103.550 E0.3473
G1 X100.825 Y101.300 E0.3957
G1 X98.825 Y101.300 E0.4387
; gap fill
G1 X99.569 Y100.431 F4800
G92 E0
G1 X99.681 Y100.319 E0.0034 F480
G1 X99.681 Y99.753 E0.0156
G1 X99.569 Y99.865 E0.0190
G92 E0
G1 E-1.0000 F1600
G1 Z1.690 F1000
; layer 7, Z = 0.690
; inner perimeter
G1 X99.225 Y99.100 F4800
G1 Z0.690 F1000
G1 E0.0000 F1600
G92 E0
G1 X100.025 Y99.100 E0.0172 F480
G1 X100.025 Y100.900 E0.0559
G1 X99.225 Y100.900 E0.0731
G1 X99.225 Y99.100 E0.1118
; outer perimeter
G1 X98.825 Y98.700 F4800
G92 E0
G1 X100.825 Y98.700 E0.0430 F360
G1 X100.825 Y96.450 E0.0914
G1 X101.175 Y96.450 E0.0989
G1 X101.175 Y98.800 E0.1495
G1 X100.425 Y98.800 E0.1656
G1 X100.425 Y101.200 E0.2172
G1 X101.175 Y101.200 E0.2333
G1 X101.175 Y103.550 E0.2838
G1 X100.825 Y103.550 E0.2914
G1 X100.825 Y101.300 E0.3398
G1 X98.825 Y101.300 E0.3828
G1 X98.825 Y98.700 E0.4387
; gap fill
G1 X99.569 Y99.569 F4800
G92 E0
G1 X99.681 Y99.681 E0.0034 F480
G1 X99.681 Y100.247 E0.0156
G1 X99.569 Y100.135 E0.0190
G92 E0
G1 E-1.0000 F1600
G1 Z1.790 F1000
; layer 8, Z = 0.790
; inner perimeter
G1 X99.225 Y100.900 F4800
G1 Z0.790 F1000
G1 E0.0000 F1600
G92 E0
G1 X99.225 Y99.100 E0.0387 F480
G1 X100.025 Y99.100 E0.0559
G1 X100.025 Y100.900 E0.0946
G1 X99.225 Y100.900 E0.1118
; outer perimeter
G1 X98.825 Y101.300 F4800
G92 E0
G1 X98.825 Y98.700 E0.0559 F360
G1 X100.825 Y98.700 E0.0989
G1 X100.825 Y96.450 E0.1473
G1 X101.175 Y96.450 E0.1548
G1 X101.175 Y98.800 E0.2054
G1 X100.425 Y98.800 E0.2215
G1 X100.425 Y101.200 E0.2731
G1 X101.175 Y101.200 E0.2892
G1 X101.175 Y103.550 E0.3398
G1 X100.825 Y103.550 E0.3473
G1 X100.825 Y101.300 E0.3957
G1 X98.825 Y101.300 E0.4387
; gap fill
G1 X99.569 Y100.431 F4800
G92 E0
G1 X99.681 Y100.319 E0.0034 F480
G1 X99.681 Y99.753 E0.0156
G1 X99.569 Y99.865 E0.0190
G92 E0
G1 E-1.0000 F1600
G1 Z1.890 F1000
; layer 9, Z = 0.890
; inner perimeter
G1 X99.225 Y99.100 F4800
G1 Z0.890 F1000
G1 E0.0000 F1600
G92 E0
G1 X100.025 Y99.100 E0.0172 F480
G1 X100.025 Y100.900 E0.0559
G1 X99.225 Y100.900 E0.0731
G1 X99.225 Y99.100 E0.1118
; outer perimeter
G1 X98.825 Y98.700 F4800
G92 E0
G1 X100.825 Y98.700 E0.0430 F360
G1 X100.825 Y96.450 E0.0914
G1 X101.175 Y96.450 E0.0989
G1 X101.175 Y98.800 E0.1495
G1 X100.425 Y98.800 E0.1656
G1 X100.425 Y101.200 E0.2172
G1 X101.175 Y101.200 E0.2333
G1 X101.175 Y103.550 E0.2838
G1 X100.825 Y103.550 E0.2914
G1 X100.825 Y101.300 E0.3398
G1 X98.825 Y101.300 E0.3828
G1 X98.825 Y98.700 E0.4387
; gap fill
G1 X99.569 Y99.569 F4800
G92 E0
G1 X99.681 Y99.681 E0.0034 F480
G1 X99.681 Y100.247 E0.0156
G1 X99.569 Y100.135 E0.0190
G92 E0
G1 E-1.0000 F1600
G1 Z1.990 F1000
; layer 10, Z = 0.990
; inner perimeter
G1 X99.225 Y100.900 F4800
G1 Z0.990 F1000
G1 E0.0000 F1600
G92 E0
G1 X99.225 Y99.100 E0.0387 F480
G1 X100.025 Y99.100 E0.0559
G1 X100.025 Y100.900 E0.0946
G1 X99.225 Y100.900 E0.1118
; outer perimeter
G1 X98.825 Y101.300 F4800
G92 E0
G1 X98.825 Y98.700 E0.0559 F360
